X:1
T:Fernando SOR (1778-1839)
T:Andantino
T:Studio op.6 n. 8 - Segovia n.1
T:Fernando Sor
T:Revisione P.Romanello
%%score ( 1 2 3 4 )
L:1/8
Q:1/4=100
M:3/4
K:C
V:1 treble-8 
V:2 treble-8 
V:3 treble-8 
V:4 treble-8 
V:1
 [ce]2 [ce]2 [ce]2 | d4 [^ce]2 | [df]2 [df]2 [df]2 | e4 [df]2 | [eg]2 [ce]2 [df][ce] | %5
 [Bd]2 [ce][Bd] [Ac]2 | [Bd][Ac] [^GB]2 [Ac][=GB] | [^FA]2 [Gd]2 [Ge]2 | [GB]2 [Ac]2 [^FA]2 | %9
 G2 z2 z2 | z2 g2 f2 | e4 x2 | ^c2 a2 g2 | (f4 e2 | d2) (A x a2) | ([df]4 [_Be]2 | e2) d2 c2 | %17
 B2 [Ac]2 [Bd]2 | [ce]6 | [Ac]2 [Bd]2 [ce]2 | [df]6 | [Bd]2 [ce]2 [df]2 | [eg]6 | %23
 [ce]2 [df]2 [fa]2 | [ce]2 [df]2 [Bd]2 | c2 e2 [c^f]2 | [Bg]2 d2 [_Be]2 | f2 c2 d2 | %28
 e2 B2 [=G^c]2 | d2 A2 [=FB]2 | [Ec]2 [Ad]2 [FB]2 | [Ec]2 z2 a2- | a2 x2 g2 | g2 x2 f2 | f2 x2 e2 | %35
 e2 x2 d2 | d2 c2 (c2 | [Dc]3/2){c}E x7/2 | c6 |] %39
V:2
 C2 E2 F2 | c2 B2 F E | D2 F2 G2 | d2 c2 G F | E2 A G F2 | G F (E2 F) E | D2 E D C2 | %7
 (D C) B,2 C2 | D4 D2 | G,2 G2 F2 | E4 D2 | C4 G2 | [A,A]4 [^Ce]2 |{g} d2 A2 [EG]2 | F4 A2 | %15
{g} D2 A2 G2 | [FA]4 [^FA]2 | G2 F2 D2 | C2 D2 E2 | F2 z2 z2 | D2 E2 F2 | G2 z2 z2 | E2 F2 G2 | %23
 A2 F2 D2 | G4 G,2 | C2 z2 D2 | G x z2 C2 | [FA]4 [FA]2 | [E^G]4 A,2 | [D^F]4 G,2 | A,2 F,2 G,2 | %31
 C2 E2 [^Fc]2 | B4 D2 | A4 C2 | ^G4 B,2 | ^F4 A,2 | [CE]4 [A,^F]2 | G,6 |{F} F2 x4 |] %39
V:3
 x6 | G4 x2 | x6 | A4 x2 | x6 | x6 | x6 | x6 | x6 | x6 | x6 | x6 | x6 | x6 | F4 x2 | x6 | x6 | x6 | %18
 x6 | x6 | x6 | x6 | x6 | x6 | x6 | x6 | x6 | x6 | x6 | x6 | x6 | x6 | x6 | x6 | x6 | x6 | x6 | %37
 x6 | C6 |] %39
V:4
 x6 | x6 | x6 | x6 | x6 | x6 | x6 | x6 | x6 | x6 | x6 | x6 | x6 | x6 | x6 | x6 | x6 | x6 | x6 | %19
 x6 | x6 | x6 | x6 | x6 | x6 | x6 | x6 | x6 | x6 | x6 | x6 | x6 | G2 x4 | F2 x4 | E2 x4 | D2 x4 | %36
 x6 | x6 | x6 |] %39

